Sources/FrostedUI/Resources/Icons.xcassets/mail20.imageset/mail-20.svg

<svg width="20" height="20" viewBox="0 0 20 20" fill="none" xmlns="http://www.w3.org/2000/svg" data-fui-icon="true">
  <path
    d="M16.6699 2C18.509 2 20 3.49097 20 5.33008V14.6699C20 16.509 18.509 18 16.6699 18H3.33008C1.49097 18 0 16.509 0 14.6699V5.33008C0 3.49097 1.49097 2 3.33008 2H16.6699ZM12.6094 12.1943C11.8406 12.7194 10.931 13 10 13C9.069 13 8.15941 12.7194 7.39062 12.1943L1.5 8.16992V14.6699C1.5 15.6806 2.3194 16.5 3.33008 16.5H16.6699C17.6806 16.5 18.5 15.6806 18.5 14.6699V8.16992L12.6094 12.1943ZM3.33008 3.5C2.3194 3.5 1.5 4.3194 1.5 5.33008V6.35352L8.2373 10.9551C8.75678 11.3098 9.37094 11.5 10 11.5C10.6291 11.5 11.2432 11.3098 11.7627 10.9551L18.5 6.35352V5.33008C18.5 4.3194 17.6806 3.5 16.6699 3.5H3.33008Z"
    fill="currentColor"
  />
</svg>

<svg xmlns="http://www.w3.org/2000/svg" width="20" height="20" fill="none" data-fui-icon="true" viewBox="0 0 20 20"><path fill="currentColor" d="M16.67 2A3.33 3.33 0 0 1 20 5.33v9.34A3.33 3.33 0 0 1 16.67 18H3.33A3.33 3.33 0 0 1 0 14.67V5.33A3.33 3.33 0 0 1 3.33 2zm-4.06 10.194a4.63 4.63 0 0 1-5.22 0L1.5 8.17v6.5c0 1.01.82 1.83 1.83 1.83h13.34c1.01 0 1.83-.82 1.83-1.83v-6.5zM3.33 3.5c-1.01 0-1.83.82-1.83 1.83v1.024l6.737 4.601a3.13 3.13 0 0 0 3.526 0L18.5 6.354V5.33c0-1.01-.82-1.83-1.83-1.83z"/></svg>
